X:1
T:The Stream of Life
T:W. C. Cates
T:The Stream of Life
T:Public Domain
T:Public Domain
T:Public Domain
C:W. C. Cates
Z:Public Domain
%%score ( 1 2 ) ( 3 4 )
L:1/8
M:4/4
K:C
V:1 treble 
V:2 treble 
V:3 bass 
V:4 bass 
V:1
 [CE][DF] | [EG]2 (3[Gc][GB][FA] [EG]2 [FB][Ec] | [Gd]2 (3[Gf][Ge][Fd] [EG]2 [CE][DF] | %3
w: 1.~There’s a|stream flow- ing in peace, To the|lost, bring- ing re- lease, If they|
w: 2.~Love- ly|stream, riv- er of life, There you’ll|find free- dom from strife, Pre- cious|
w: 3.~Stream of|life, peace- ful and blest, Near thy|flow may we all rest, And from|
 [EG]2 [Ec][Fd] [Ge]2 (3(ed)[Gc] | [Gd]6 [CE][DF] | [EG]2 (3[Gc][GB][FA] [EG]2 [FB][Ec] | %6
w: drink of its wa- ters * so|O then come,|own- ing each sin, And re- ceive|
w: balm for the wea- ry * al-|If you shall|hear to be- lieve, Par- doning grace|
w: sin and its sor- rows * be|Till be- yond|death we shall meet, There our Lord’s|
 [Gd]2 (3[Gf][Ge][Fd] [EG]2 [CE][DF] | [EG]2 (3[Ec][Fd][Ge] [Fd]2 [FB]2 | [Ec]6 || %9
w: cleans- ing with- in— O be saved|while your Re- deem- er’s near.|Beau-|
w: you shall re- ceive, And thro’ Christ,|glad- ness ob- tain for aye.||
w: praise to re- peat, Thro’ a long|hap- py e- ter- ni- ty!||
"^Refrain" (3GGG | (3(GGG (3GGG G2) (3cBA | (3(EEE (3EFF E2) [CE][DF] | %12
w: ti- ful stream,|flow- * * * * * * ing a- long,|ing * * * * * * peace to|
w: |||
w: |||
 [EG]2 [Ec][Fd] [Ge]2 (3(ed)[Gc] | [Gd]6 (3GGG | (3(GGG (3GGG G2) (3[Ac][GB][FA] | %15
w: mil- lions in woe; Beau- * ti-|stream, riv- er of|life, * * * * * * To this stream,|
w: |||
w: |||
 (3(EEE (3FFF E2) [CE][DF] | [EG]2 (3[Ec][Fd][Ge] [Fd]2 [DB]2 | (E2 FF E2) |] %18
w: ner, * * * * * * oh haste|go! * * * * *||
w: |||
w: |||
V:2
 x2 | x8 | x8 | x6 G2 | x8 | x8 | x8 | x8 | x6 || x2 | e6 x2 | G6 x2 | x6 G2 | x8 | e6 x2 | G6 x2 | %16
w: |||clear;|||||||Bring-|the|ful||sin-|to|
w: |||way;|||||||||||||
w: |||free;|||||||||||||
 x8 | c6 |] %18
w: ||
w: ||
w: ||
V:3
 [C,G,][C,G,] | [C,C]2 (3[C,E][C,D][C,C] [C,C]2 [G,D][G,C] | %2
w: ~ ~|~ ~ ~ ~ ~ ~ ~|
 [G,B,]2 (3[G,D][G,C][G,B,] C2 [C,G,][C,G,] | [C,C]2 [C,C][C,C] [C,C]2 (3([C,C][D,B,])[E,C] | %4
w: ~ ~ ~ ~ ~ ~ ~|~ ~ ~ ~ ~ * ~|
 [G,B,]6 [C,G,][C,G,] | [C,C]2 (3[C,E][C,D][C,C] [C,C]2 [G,D][G,C] | %6
w: ~ ~ ~|~ ~ ~ ~ ~ ~ ~|
 [G,B,]2 (3[G,D][G,C][G,B,] C2 [C,G,][C,G,] | [C,C]2 (3[C,C][C,C][C,C] [G,B,]2 G,2 | [C,G,]6 || %9
w: ~ ~ ~ ~ ~ ~ ~|~ ~ ~ ~ ~ Beau-|ful,|
 z2 | (3[C,C][C,C][C,C] (3[C,C][C,C][C,C] [C,C]2 z2 | %11
w: |beau- ti- ful stream, flow- ing so|
 (3[C,C][C,C][C,C] (3[G,D][G,D][G,D] [C,C]2 [C,G,][C,G,] | %12
w: gent- ly a- long, ~ ~ ~ ~ ~|
 [C,C]2 [C,G,][C,G,] [C,C]2 (3[C,C][D,B,][E,C] | [G,B,]6 z2 | %14
w: ~ ~ ~ ~ ~ beau- ti-|ful,|
 (3[C,C][C,C][C,C] (3[C,C][C,C][C,C] [C,C]2 z2 | %15
w: beau- ti- ful stream, Beau- ti- ful|
 (3[C,C][C,C][C,C] (3[G,D][G,D][G,D] [C,C]2 [C,G,][C,G,] | [C,C]2 (3[C,C][C,C][C,C] G,2 G,2 | %17
w: riv- er of life, * * * * *||
 (G,2 A,A, G,2) |] %18
w: |
V:4
 x2 | x8 | x4 C2 x2 | x8 | x8 | x8 | x4 C2 x2 | x6 G,2 | x6 || x2 | x8 | x8 | x8 | x8 | x8 | x8 | %16
w: ||~||||~|ti-|||||||||
 x4 G,2 G,2 | C,6 |] %18
w: ||

